packages/core/src/svgs/tokens/mono/MIMO.svg

<svg width="24" height="24" viewBox="0 0 24 24" fill="none" xmlns="http://www.w3.org/2000/svg">
<path d="M8.45989 6.19399H8.72393C9.07248 6.19399 9.3471 6.37355 9.48439 6.47917C9.64806 6.60063 9.80652 6.75378 9.94909 6.9175C10.2448 7.23435 10.5618 7.6674 10.8786 8.13212C11.2482 8.68134 11.6338 9.30978 11.9876 9.92765C12.3172 9.36592 12.6588 8.81129 13.012 8.26414C13.329 7.78886 13.6458 7.32941 13.9468 6.98086C14.0894 6.81187 14.2478 6.64288 14.4116 6.50558C14.5436 6.40524 14.8287 6.19399 15.2037 6.19399C15.4837 6.19399 15.7055 6.31546 15.8164 6.38412C15.9483 6.46861 16.0751 6.56895 16.186 6.67456C16.4025 6.88581 16.6401 7.16042 16.8831 7.48256C17.3741 8.12156 17.9445 9.00877 18.499 10.0174C18.6998 10.3765 18.8951 10.7673 19.0905 11.1634C19.7348 11.0366 20.3633 10.8782 20.8755 10.6882C21.3032 10.5191 21.7838 10.7409 21.9476 11.1739C22.1059 11.607 21.8947 12.0929 21.4617 12.2619C20.9652 12.4467 20.3844 12.6052 19.7929 12.7371C20.3579 14.061 20.7399 15.4557 20.9283 16.8827C20.9329 17.0916 20.8591 17.2947 20.7214 17.4518C20.5836 17.6087 20.3919 17.7084 20.1842 17.731C19.9765 17.7537 19.7679 17.6975 19.5995 17.5736C19.4313 17.4498 19.3156 17.2673 19.2753 17.0623C19.081 15.6743 18.6898 14.321 18.1135 13.0435C17.6647 13.1121 17.2632 13.165 16.9517 13.2071L16.751 13.2336C16.2916 13.2969 15.8744 12.9695 15.8164 12.51C15.7862 12.2903 15.8442 12.0675 15.9778 11.8903C16.1114 11.7133 16.3096 11.5962 16.5292 11.5648L16.7036 11.5436L17.369 11.4539L17.0414 10.8307C16.6067 10.0218 16.1143 9.24529 15.5681 8.50708C15.4308 8.3328 15.3146 8.19021 15.209 8.07403C14.9819 8.34336 14.702 8.73415 14.401 9.19887C13.8465 10.0438 13.2603 11.0419 12.8325 11.7813L12.7216 11.9714C12.6415 12.1091 12.5254 12.2224 12.3859 12.2996C12.2466 12.3766 12.0889 12.4144 11.9295 12.409C11.7703 12.4036 11.6156 12.3551 11.4816 12.2688C11.3477 12.1824 11.2397 12.0614 11.169 11.9186C10.6676 10.942 10.1104 9.9952 9.50024 9.0827C9.27126 8.73305 9.02081 8.39795 8.75034 8.07931C7.92651 8.83449 7.17661 9.98575 6.53761 11.3218C6.85447 11.3852 7.12908 11.4327 7.3456 11.4645C7.79976 11.5225 8.1219 11.945 8.05853 12.4097C8.00044 12.8692 7.58324 13.1913 7.12379 13.1332C6.79638 13.0857 6.35278 13.0065 5.86692 12.9009C5.34675 14.2611 4.96114 15.6691 4.71567 17.1045C4.68183 17.3229 4.56275 17.5189 4.38453 17.6497C4.20633 17.7803 3.98354 17.835 3.76509 17.8016C3.54682 17.764 3.35202 17.6423 3.22264 17.4625C3.09324 17.2827 3.03962 17.0594 3.07328 16.8405C3.32121 15.3711 3.70665 13.9283 4.22453 12.5312L2.56102 12.1193C2.3635 12.0488 2.19925 11.9073 2.1002 11.7225C2.00114 11.5377 1.97437 11.3226 2.02507 11.1191C2.07578 10.9156 2.20035 10.7383 2.37456 10.6215C2.54877 10.5048 2.76017 10.457 2.96765 10.4874C3.46407 10.6142 4.15588 10.7885 4.86881 10.9521C5.69265 9.13551 6.81221 7.35053 8.24865 6.34186L8.45989 6.18872V6.19399Z" fill="white"/>
</svg>

<svg xmlns="http://www.w3.org/2000/svg" width="24" height="24" fill="none" viewBox="0 0 24 24">
    <path fill="#fff" d="M8.46 6.194h.264c.348 0 .623.18.76.285.164.122.323.275.465.439.296.316.613.75.93 1.214a30 30 0 0 1 1.109 1.796q.494-.843 1.024-1.664c.317-.475.634-.935.935-1.283.142-.17.3-.338.465-.475.132-.1.417-.312.792-.312.28 0 .502.121.612.19.132.085.26.185.37.29.216.212.454.486.697.809.491.639 1.062 1.526 1.616 2.534.2.36.396.75.591 1.146a12 12 0 0 0 1.785-.475.826.826 0 0 1 1.073.486.85.85 0 0 1-.486 1.088c-.497.185-1.078.343-1.67.475a16 16 0 0 1 1.136 4.146.836.836 0 0 1-1.653.18 14.7 14.7 0 0 0-1.162-4.02c-.448.07-.85.122-1.161.164l-.201.027a.83.83 0 0 1-.935-.724.84.84 0 0 1 .713-.945l.175-.021.665-.09-.328-.623a19 19 0 0 0-1.473-2.324 8 8 0 0 0-.359-.433c-.227.27-.507.66-.808 1.125a57 57 0 0 0-1.569 2.582l-.11.19a.882.882 0 0 1-1.553-.052A29 29 0 0 0 9.5 9.083q-.344-.525-.75-1.004c-.823.755-1.573 1.907-2.212 3.243.316.063.591.11.808.143.454.058.776.48.713.945a.834.834 0 0 1-.935.723 19 19 0 0 1-1.257-.232 22.3 22.3 0 0 0-1.151 4.204.835.835 0 0 1-.95.697.845.845 0 0 1-.693-.962 24 24 0 0 1 1.152-4.309L2.56 12.12a.845.845 0 0 1 .407-1.632c.496.127 1.188.302 1.9.465.825-1.816 1.944-3.601 3.38-4.61l.212-.153z"/>
</svg>
